collateral/SUSDE.svg

<svg width="42" height="42" viewBox="0 0 42 42" fill="none" xmlns="http://www.w3.org/2000/svg">
<g clip-path="url(#clip0_9300_2941)">
<g clip-path="url(#clip1_9300_2941)">
<path d="M20.9653 0.382691H20.966C32.2007 0.382691 41.3083 9.58815 41.3083 20.9437V20.9445C41.3083 32.3 32.2007 41.5055 20.966 41.5055H20.9653C9.73052 41.5055 0.622982 32.3 0.622982 20.9445V20.9437C0.622982 9.58815 9.73052 0.382691 20.9653 0.382691Z" fill="white"/>
<path fill-rule="evenodd" clip-rule="evenodd" d="M20.9653 0.757382C9.94123 0.757382 0.997674 9.7913 0.997674 20.9437V20.9445C0.997674 32.0969 9.94122 41.1308 20.9653 41.1308H20.966C31.99 41.1308 40.9336 32.0969 40.9336 20.9445V20.9437C40.9336 9.7913 31.99 0.757382 20.966 0.757382H20.9653ZM0.248291 20.9437C0.248291 9.385 9.51982 0.00799942 20.9653 0.00799942H20.966C32.4114 0.00799942 41.683 9.385 41.683 20.9437V20.9445C41.683 32.5032 32.4114 41.8802 20.966 41.8802H20.9653C9.51982 41.8802 0.248291 32.5032 0.248291 20.9445V20.9437Z" fill="black"/>
<path fill-rule="evenodd" clip-rule="evenodd" d="M17.6419 3.71324C9.64505 5.27014 3.60437 12.3814 3.60437 20.9188C3.60437 29.456 9.64505 36.5673 17.6419 38.1243V36.4821C10.5304 34.9498 5.19644 28.5638 5.19644 20.9188C5.19644 13.2736 10.5304 6.88768 17.6419 5.35545V3.71324ZM24.2682 5.36186V3.71905C32.2504 5.2878 38.276 12.392 38.276 20.9188C38.276 29.4455 32.2504 36.5497 24.2682 38.1184V36.4756C31.3649 34.932 36.684 28.5532 36.684 20.9188C36.684 13.2843 31.3649 6.90552 24.2682 5.36186Z" fill="black"/>
<path d="M23.4103 20.3334C24.7331 20.5882 25.759 21.0796 26.4882 21.8076C27.2174 22.5174 27.582 23.4273 27.582 24.5375V26.2847C27.582 27.6133 27.1072 28.6871 26.1575 29.5061C25.2079 30.3069 23.9615 30.7073 22.4183 30.7073H21.8841V33.4919H20.0526V30.7073H19.4931C18.4756 30.7073 17.5768 30.4798 16.7968 30.0248C16.0167 29.5516 15.4062 28.8964 14.9653 28.0592C14.5413 27.2038 14.3293 26.2211 14.3293 25.1109H16.1608C16.1608 26.2393 16.4661 27.1583 17.0765 27.8681C17.704 28.5597 18.5264 28.9055 19.5439 28.9055H22.3674C23.3679 28.9055 24.1734 28.6689 24.7839 28.1957C25.3944 27.7043 25.6997 27.0673 25.6997 26.2847V24.5375C25.6997 23.9187 25.4707 23.3909 25.0128 22.9542C24.5719 22.5174 23.9615 22.2352 23.1814 22.1078L18.6028 21.2888C17.3139 21.0522 16.3134 20.5609 15.6012 19.8147C14.889 19.0685 14.5329 18.1312 14.5329 17.0028V15.5286C14.5329 14.2 14.9907 13.1444 15.9064 12.3618C16.8391 11.561 18.0686 11.1606 19.5948 11.1606H20.0526V8.37602H21.8841V11.1606H22.4692C23.9106 11.1606 25.0722 11.6338 25.9541 12.5802C26.8358 13.5084 27.2767 14.7369 27.2767 16.2657H25.4453C25.4453 15.2647 25.174 14.4639 24.6313 13.8633C24.0887 13.2627 23.3679 12.9624 22.4692 12.9624H19.5948C18.6282 12.9624 17.8566 13.199 17.28 13.6722C16.7035 14.1272 16.4152 14.746 16.4152 15.5286V17.0028C16.4152 17.6398 16.6271 18.1767 17.0511 18.6135C17.492 19.0503 18.094 19.3414 18.8571 19.487L23.4103 20.3334Z" fill="black"/>
</g>
</g>
<defs>
<clipPath id="clip0_9300_2941">
<rect width="42" height="42" fill="white"/>
</clipPath>
<clipPath id="clip1_9300_2941">
<rect width="42" height="42" fill="white"/>
</clipPath>
</defs>
</svg>

<svg width="42" height="42" fill="none" viewBox="0 0 42 42" xmlns="http://www.w3.org/2000/svg">
  <g clip-path="url(#a)">
    <g clip-path="url(#b)">
      <path fill="#fff" d="M20.965.383h.001c11.235 0 20.342 9.205 20.342 20.56v.002c0 11.355-9.107 20.56-20.342 20.56S.622 32.3.622 20.946v-.001C.623 9.588 9.731.383 20.965.383"/>
      <path fill="#000" fill-rule="evenodd" d="M20.965.757C9.941.757.998 9.791.998 20.944S9.94 41.132 20.965 41.132h.001c11.024 0 19.968-9.034 19.968-20.186v-.001C40.934 9.79 31.99.757 20.966.757M.248 20.944C.248 9.385 9.52.008 20.965.008h.001c11.445 0 20.717 9.377 20.717 20.936 0 11.56-9.272 20.936-20.717 20.936C9.52 41.88.247 32.503.247 20.945z" clip-rule="evenodd"/>
      <path fill="#000" fill-rule="evenodd" d="M17.642 3.713C9.645 5.27 3.604 12.381 3.604 20.92s6.041 15.648 14.038 17.205v-1.642C10.53 34.95 5.196 28.564 5.196 20.92S10.53 6.888 17.642 5.355zm6.626 1.649V3.719c7.982 1.569 14.008 8.673 14.008 17.2s-6.026 15.63-14.008 17.2v-1.643c7.097-1.544 12.416-7.923 12.416-15.557S31.364 6.906 24.268 5.362" clip-rule="evenodd"/>
      <path fill="#000" d="M23.41 20.333q1.985.383 3.078 1.475 1.095 1.065 1.094 2.73v1.747q0 1.992-1.425 3.221-1.424 1.2-3.739 1.201h-.534v2.785h-1.831v-2.785h-.56q-1.526 0-2.696-.682a4.94 4.94 0 0 1-1.832-1.966q-.636-1.283-.636-2.948h1.832q0 1.692.915 2.757.942 1.038 2.468 1.038h2.823q1.5 0 2.417-.71.915-.738.916-1.911v-1.747q0-.93-.687-1.584-.662-.655-1.832-.846l-4.578-.82q-1.934-.354-3.002-1.473t-1.068-2.812v-1.474q0-1.994 1.373-3.167 1.4-1.201 3.689-1.201h.458V8.376h1.831v2.785h.585q2.162 0 3.485 1.42 1.323 1.391 1.323 3.685h-1.832q0-1.501-.814-2.403-.813-.9-2.162-.9h-2.874q-1.45 0-2.315.71-.865.681-.865 1.856v1.474q0 .956.636 1.61.662.655 1.806.874z"/>
    </g>
  </g>
  <defs>
    <clipPath id="a">
      <path fill="#fff" d="M0 0h42v42H0z"/>
    </clipPath>
    <clipPath id="b">
      <path fill="#fff" d="M0 0h42v42H0z"/>
    </clipPath>
  </defs>
</svg>
